X:1
T:Bred ut dina vingar
R:Visa
Z:Klas Krantz, 2006
N:Psalm 190, Bred dina vida vingar
L:1/8
M:C
K:D
FA | "D"d2f2"A7"A2BG | "Bm"FAd4ef | "Em"g2e2"A7"c2A2 | "D"d4z2 :|]
de | "F#m"f2f2"Bm"f2ed | "Em"f2e2"F#7"z2f2 | "Bm"B2c2"E7"d2B2 | "A7"A4z2FA |
"D"d2f2"A7"A2BG | "Bm"FAd4ef | "Em"g2e2"A7"c2A2 | "D"d4z2 |]
